X: 84
T: Preludium G-dur
C: Maria Szymanowska
%%abc-version 2.0
%%abcx-abcm2ps-target-version 5.9.1 (29 Sep 2008)
%%abc-creator hum2abc beta
%%abcx-conversion-date 2021/10/04 07:38:40
%%abc-edited-by Leszek Kubiak
%%abc-edited-by Mateusz Solarz
%%abcx-initial-encoding-date 2020-06-16
%%humdrum-veritas 2597280970
%%humdrum-veritas-data 2683628841
%%linebreak <none>
%%barnumbers 0
L: 1/16
M: 6/8
N: Derived from pl-kozmzk--mzk-m-31--011_szymanowska-maria--preludium-g-dur.krn
%%staves {1 2}
V: 1 clef=treble
V: 2 clef=bass
K: G
[V:1] {/d} d'2>^a2c'b gf=agd^c | 
[V:2] [G,,12D,12B,12]- | 
[V:1] ed=cBAG FGAGge | 
[V:2] [G,,6D,6B,6]z4z2 | 
[V:1] {/E} d2^c2=c2-c4z2 | 
[V:2] {/A,,} A,2>^G,2B,A, ^G,A,CB,A,=G, | 
[V:1] [A4c4d4a4]z2[d4f4a4d'4]z2 | 
[V:2] F,E,D,C,B,,A,, G,,F,,E,,D,,E,,F,, | 
[V:1] gg'fg'eg' dg'cg'Bg' | 
[V:2] G,,G,[B,,D,]G,[B,,D,]G, G,,G,[B,,D,]G,[B,,D,]G, & G,,4x2G,,4x2 | 
[V:1] dd'cd'Ad'!accent!D4EF | 
[V:2] G,,F,[C,D,]F,[C,D,]F, G,,A,[C,D,]A,[C,D,]A, & G,,4x2G,,4x2 | 
[V:1] GgFgEg DgCgB,g | 
[V:2] G,,,G,,[B,,,D,,]G,,[B,,,D,,]G,, G,,,G,,[B,,,D,,]G,,[B,,,D,,]G,, | 
[V:1] DdCdA,dD,4E,F, | 
[V:2] G,,,A,,[C,,D,,]A,,[C,,D,,]A,, G,,,A,,[C,,D,,]A,,[C,,D,,]A,, | 
[V:1] G,B,DG !accent![CD]F B,DGB !accent![EGA]e | 
[V:2] [G,,,4G,,4][A,,,2A,,2][B,,,4B,,4][C,,2C,2] | 
[V:1] GBdg !accent![G_Be]g [G=Bd]g[Acd]a[Acd]f | 
[V:2] [D,,4D,4][^C,,2^C,2] [D,,2D,2][D,,2D,2][D,,2D,2] | 
[V:1] [G12B12d12g12] | 
[V:2] G,,G,F,,G,E,,G, D,,G,C,,G,B,,,G, | 
[V:1] [A2e2]d2^c2d4d2 & G4!accent![G2_B2][G4=B4][F2A2] | 
[V:2] C,,C,D,,D,_E,,_E, D,,D,B,,G,,D,,D, | 
[V:1] [G4B4g4]z2[G4c4e4g4]z2 | 
[V:2] G,,G,G,,A,G,,B, C,CC,DC,E | 
[V:1] {/d} d'bgdBGD4[A2c2f2] | 
[V:2] D,G,B,D[K:clef=treble]GBd4[K:clef=bass][D,2D2] | 
[V:1] [GBg]{/e}d^cd [A=cf]d [GBg] {/E} D^CD[A,=CF]D | 
[V:2] G,4[D,2D2]G,4[D,,2D,2] | 
[V:1] {/G,} _B2>^F2_AG _ED=FE_B,=A, | 
[V:2] [_E,,12_E,12]- | 
[V:1] C_B,_A,G,F,_E, D,E,F,E,_EC | 
[V:2] [E,,4E,4]z2z4z2 | 
[V:1] _B,=A,_A,4-A,4z2 | 
[V:2] {/F,,,} !wedge!F,,2>=E,,2G,,F,, _A,,G,,_B,,A,,C,B,, | 
[V:1] z12 | 
[V:2] D,C,_E,D,F,E, G,F,_A,F,C,D, | 
[V:1] _e_e'de'ce' _Be'_Ae'Ge' | 
[V:2] _E,,G,[_B,,_E,]G,[B,,E,]G, E,,G,[B,,E,]G,[B,,E,]G, | 
[V:1] _B_b_Ab=Fb!accent!_B,4CD | 
[V:2] _E,,=F,[_A,,_B,,]F,[A,,B,,]F, _E,,F,[A,,B,,]F,[A,,B,,]F, | 
[V:1] _E_eDeCe _B,e_A,eG,e | 
[V:2] C,,_E,[_E,,G,,]E,[E,,G,,]E, C,,E,[E,,G,,]E,[E,,G,,]E, | 
[V:1] Gg=FgDg!accent!G,4=A,=B, | 
[V:2] G,,,G,,[=B,,,D,,]G,,[B,,,D,,]G,, G,,,G,,[B,,,D,,]G,,[B,,,D,,]G,, | 
[V:1] !wedge!C c'_ec'_Ec' !wedge!D d'=fd'Fd' | 
[V:2] _A,,, C,[_E,,_A,,]C,A,,,C, _B,,, F,[F,,_B,,]F,B,,,F, | 
[V:1] !wedge!_E _e'ge'Ge' !wedge!=F f'_bf'_Af' | 
[V:2] C,, _E,[G,,C,]E,C,,E, D,, =F,[F,,_B,,]F,D,,F, | 
[V:1] !wedge!G g'_bg'Gg' !wedge!_A _a'_ba'Gg' | 
[V:2] _E,, G,[_B,,_E,]G,E,,G, =F,, F,[_B,,D,]F,G,,G, | 
[V:1] =F =f'c'f'Ff' G_e'_Af'Fd' | 
[V:2] _A,, C_A,C=A,,C _B,,_B,B,,B,B,,B, | 
[V:1] [_e12g12_e'12] | 
[V:2] _E,_ED,EC,E _B,,E_A,,EG,,E | 
[V:1] [A2_c2]_B2A2[G4B4][=F2B2] & _E4[E2F2]E4D2 | 
[V:2] _A,,_A,_B,,_B,_C,_C B,,B,G,_E,B,,B, | 
[V:1] [_E4G4_e4]z2[c4e4_a4c'4]z2 | 
[V:2] _E,,_E,E,,F,E,,G, _A,,_A,A,,_B,A,,C | 
[V:1] {/_B} _bg_e_BG_E_B,4[F2_A2d2] | 
[V:2] _B,,_E,G,_B,[K:clef=treble]_EG_B4[K:clef=bass][_B,,2_B,2] | 
[V:1] [_EG_e]{/c}B=AB[F_Ad]B [EGe] {/c'} b=ab[f_ad']b | 
[V:2] _E,4[_B,,2_B,2]E,4[B,,2B,2] | 
[V:1] [_e4g4_e'4]z2z4z2 | 
[V:2] !wedge!_E, !wedge!DE=A,!wedge!_B,^F, G,!wedge!D,_E,A,,_B,,G,, | 
[V:1] [g4c'4_e'4g'4]z2z4z2 | 
[V:2] {/C,,} !wedge!C, D_E!wedge!=B,C^F, !wedge!G,D,_E,!wedge!=B,,C,G,, | 
[V:1] z =bc'g_a=e f=BcG_AF | 
[V:2] _A,,4z2z4z2 | 
[V:1] [_E6G6_B6-]B[F/_A/d/]c/B_AGF | 
[V:2] _B,, ^FGD_EC_B,4=B,2 | 
[V:1] [_E4G4_e4]z2z4z2 | 
[V:2] C ^FG!wedge!D_E=B, !wedge!C^F,G,!wedge!D,_E,C, | 
[V:1] [d6^f6d'6]-[d4f4d'4][d2a2c'2] | 
[V:2] D,[K:clef=treble] ^cd^GA^^E ^F^CD[K:clef=bass]^G,A,^F, | 
[V:1] {/Bg} c'_bag=f_e dc_BAce | 
[V:2] G,4z2C4z2 | 
[V:1] {/d} d'_bgd_BGD4!fermata![A2c2^f2] | 
[V:2] D,G,_B,D[K:clef=treble]G_Bd4[K:clef=bass]!fermata![D,2D2] | 
[V:1] gg'=fg'_eg' dg'cg'_Bg' | 
[V:2] G,,G,[_B,,D,]G,[B,,D,]G, G,,G,[B,,D,]G,[B,,D,]G, & G,,4x2G,,4x2 | 
[V:1] dd'cd'Ad'!accent!D4E^F | 
[V:2] G,,F,[C,D,]F,[C,D,]F, G,,A,[C,D,]A,[C,D,]A, & G,,4x2G,,4x2 | 
[V:1] GgFgEg DgCgB,g | 
[V:2] G,,,G,,[=B,,,D,,]G,,[B,,,D,,]G,, G,,,G,,[B,,,D,,]G,,[B,,,D,,]G,, | 
[V:1] DdCdA,d!accent!D,4E,F, | 
[V:2] G,,,A,,[C,,D,,]A,,[C,,D,,]A,, G,,,A,,[C,,D,,]A,,[C,,D,,]A,, | 
[V:1] G,B,DG [CD]F B,DGB [EGA]e | 
[V:2] [G,,,4G,,4][A,,,2A,,2][B,,,4B,,4][C,,2C,2] | 
[V:1] GBdg [G_Be]g [G=Bd]g[Acd]a[Acd]f | 
[V:2] [D,,4D,4][^C,,2^C,2] [D,,2D,2][D,,2D,2][D,,2D,2] | 
[V:1] [G12B12d12g12] | 
[V:2] G,,G,F,,G,E,,G, D,,G,C,,G,B,,,G, | 
[V:1] e2d2^c2[G4=B4d4][F2A2d2] & [G4A4][G2_B2]x6 | 
[V:2] C,,C,D,,D,_E,,_E, D,,D,B,,G,,D,,D, | 
[V:1] [G4B4g4]z2[G4c4e4g4]z2 | 
[V:2] G,,G,G,,A,G,,B, C,CC,DC,E | 
[V:1] {/d} d'bgdBGD4[A2c2f2] | 
[V:2] D,G,B,D[K:clef=treble]GBd4[K:clef=bass][D,2D2] | 
[V:1] [GBg]{/e}d^cd[A=cf]d [GBg] {/E} D^CD[A,=CF]D | 
[V:2] G,4[D,2D2]G,4[D,,2D,2] | 
[V:1] [G,4B,4G4]z2z4z2 | 
[V:2] G,, FG^CD^A, B,F,G,^C,D,B,, | 
[V:1] [D4G4B4d4]z2z4z2 | 
[V:2] G,,[K:clef=treble] ^ABFG^C[K:clef=bass] D^A,B,F,G,^C, | 
[V:1] z !wedge!^c'd'^ab!accent!f g^cd^A!accent!BF | 
[V:2] D,[K:clef=treble] !wedge!^abfg!accent![^A^c] [Bd]^ABFG!accent![^A,^C] | 
[V:1] G^CD^A,B,F, G,^C,D,^A,,B,,F,, | 
[V:2] [B,D][K:clef=bass] ^A,B,F,G,[^A,,^C,] [B,,D,]^A,,B,,F,,G,,^D,, | 
[V:1] G,,2E,,2 !accent![c2e2]- [c2e2][B2d2]!accent![A2c2f2] | 
[V:2] E,,2 z2 C,,2D,,4D,2 | 
[V:1] [GBg]{/e}d^cd!accent![A=cf]d [GBg] {/E} D^CD!accent![A,=CF]D | 
[V:2] G,,4[D,2D2]G,4[D,,2D,2] | 
[V:1] [G,4B,4G4]z2[d4f4a4d'4]z2 | 
[V:2] G,,4z2[D,,4D,4]z2 | 
[V:1] !fermata![B12d12g12b12] |]  
[V:2] !fermata![G,,12G,12] |]  


